svgs/sharp-light/truck-container-empty.svg

<svg xmlns="http://www.w3.org/2000/svg" viewBox="0 0 640 512"><!--! Font Awesome Pro 6.6.0 by @fontawesome - https://fontawesome.com License - https://fontawesome.com/license (Commercial License) Copyright 2024 Fonticons, Inc. --><path d="M448 128l16 0 88 0 7.1 0 4.8 5.3 72 80 4.1 4.6 0 6.1 0 32 0 48 0 16 0 48 0 32-32 0c0 44.2-35.8 80-80 80s-80-35.8-80-80l-160 0c0 44.2-35.8 80-80 80c-26.2 0-49.4-12.6-64-32c-14.6 19.4-37.8 32-64 32c-44.2 0-80-35.8-80-80s35.8-80 80-80c26.2 0 49.4 12.6 64 32c14.6-19.4 37.8-32 64-32c32.8 0 61 19.7 73.3 48L448 368l0-112 0-16 0-16 0-80 0-16zm32 128l0 80c13.4-10 30-16 48-16c32.8 0 61 19.7 73.3 48l6.7 0 0-48 0-16 0-48-128 0zm122.5-32l-57.6-64L480 160l0 64 122.5 0zM528 448a48 48 0 1 0 0-96 48 48 0 1 0 0 96zM256 400a48 48 0 1 0 -96 0 48 48 0 1 0 96 0zM80 448a48 48 0 1 0 0-96 48 48 0 1 0 0 96z"/></svg>

<svg xmlns="http://www.w3.org/2000/svg" viewBox="0 0 640 512"><!--! Font Awesome Pro 6.4.2 by @fontawesome - https://fontawesome.com License - https://fontawesome.com/license (Commercial License) Copyright 2023 Fonticons, Inc. --><path d="M448 128h16 88 7.1l4.8 5.3 72 80 4.1 4.6V224v32 48 16 48 32H608c0 44.2-35.8 80-80 80s-80-35.8-80-80H288c0 44.2-35.8 80-80 80c-26.2 0-49.4-12.6-64-32c-14.6 19.4-37.8 32-64 32c-44.2 0-80-35.8-80-80s35.8-80 80-80c26.2 0 49.4 12.6 64 32c14.6-19.4 37.8-32 64-32c32.8 0 61 19.7 73.3 48H448V256 240 224 144 128zm32 128v80c13.4-10 30-16 48-16c32.8 0 61 19.7 73.3 48H608V320 304 256H480zm122.5-32l-57.6-64H480v64H602.5zM528 448a48 48 0 1 0 0-96 48 48 0 1 0 0 96zM256 400a48 48 0 1 0 -96 0 48 48 0 1 0 96 0zM80 448a48 48 0 1 0 0-96 48 48 0 1 0 0 96z"/></svg>
